X:418
T: Han wo qingge chi huoshao
N: C1453
O: China,Hubei, Jiangling
S: I, 445]
R: Shange, Ganwuju]
M: none
L: 1/32
K: Eb
G4G2B2B6c2f4f4c8z8
e4c4f4e2c2B8c4f16f4 | e4e2f2c8z8
B8f8e4c4B4B12 | e4c4B4c4f8e8c16
G2B2c2e2 | G2B2G2B2
c2B2G2B2 | c2B2c2e2
c2e2G2B2 | G2B2c2e2
G2B2B2z2 | c2B2c2e2
G2B2G2B2 | c2B2c2e2
c2B2B2z2 | c2B2c2e2
c2BBG2c2 | B4B4
B12G4f8c4f4-f12f4 | e2f2e2c2c8z8
B8f8f2e2c2B2-B4B12z8 | e4c4B4c4f8e8c16

@@@ Tune index: 6419
